X:1
%%titleformat R-P-Q-T C1 O1, T+T N1
T: Iridis Alpha: 18 of 100,000,000,000,000
T: Four 4-bar phrases from Voice 3.
L: 1/8
K: D % scale: C major
d1^d1B1d1|^d1e1c1^d1|B1c1^G1B1|d1^d1B1d1|
^d1e1c1^d1|e1f1^c1e1|c1^c1A1c1|^d1e1c1^d1|
B1c1^G1B1|c1^c1A1c1|^G1A1F1^G1|B1c1^G1B1|
d1^d1B1d1|^d1e1c1^d1|B1c1^G1B1|d1^d1B1d1|
